build/category/StoreOutline.svg

<svg xmlns="http://www.w3.org/2000/svg" fill="none" viewBox="0 0 24 24" focusable="false"><path d="M0 0H24V24H0z"/><path fill="#74767B" fill-rule="evenodd" d="M4.87796 4.86713C5.06076 4.34625 5.55259 3.99762 6.10462 3.99762L17.8954 3.99762C18.4474 3.99762 18.9392 4.34624 19.122 4.86711L20.7598 9.53376L20.7615 9.88672C20.4863 10.8799 19.7959 11.5237 19 11.8152L19 19.7C19 20.418 18.418 21 17.7 21L14.489 21C13.7711 21 13.189 20.418 13.189 19.7L13.189 15.2588L10.811 15.2588L10.811 19.7C10.811 20.4158 10.2268 20.997 9.51099 21L6.3 21C5.58203 21 5 20.418 5 19.7L5 11.8206C4.20289 11.5279 3.5125 10.882 3.23828 9.88565L3.24023 9.53376L4.87796 4.86713ZM6.3 11.9892L6.3 19.7L9.51099 19.7L9.51099 15.2588C9.51099 14.5408 10.093 13.9588 10.811 13.9588L13.189 13.9588C13.907 13.9588 14.489 14.5408 14.489 15.2588L14.489 19.7L17.7 19.7L17.7 11.9823C17.0508 11.9195 16.415 11.6393 15.9441 11.1398C15.4276 11.7377 14.6696 12.0382 13.9331 12.039C13.273 12.0398 12.5988 11.7994 12.1018 11.3183L11.902 11.3183C11.4058 11.7968 10.734 12.036 10.0764 12.0354C9.34206 12.0346 8.58663 11.7353 8.07216 11.1394C7.59698 11.6441 6.95498 11.9269 6.3 11.9892ZM13.9316 10.739C13.3168 10.7397 12.7591 10.3775 12.65 9.64328L12.65 5.29762L14.5493 5.29762L15.2368 9.73138C15.0736 10.403 14.5201 10.7383 13.9316 10.739ZM16.5264 9.56377L16.5357 9.56344C16.7152 10.3219 17.3254 10.6978 17.9863 10.6959C18.6036 10.6941 19.2022 10.3605 19.4554 9.70141L17.8376 5.29762L15.8648 5.29762L16.5264 9.56377ZM6.16233 5.29762L8.12091 5.29762L7.46218 9.63993C7.25583 10.3513 6.6592 10.704 6.0181 10.7024C5.3979 10.7008 4.79745 10.3659 4.54442 9.70213L6.16233 5.29762ZM8.77038 9.68394L9.43579 5.29762L11.35 5.29762L11.35 9.68452C11.2254 10.3885 10.6782 10.736 10.0777 10.7354C9.47796 10.7348 8.91595 10.3852 8.77038 9.68394Z"/></svg>

<svg xmlns="http://www.w3.org/2000/svg" fill="none" viewBox="0 0 24 24" focusable="false"><path fill="#74767B" fill-rule="evenodd" d="M4.87 4.86c.19-.52.68-.87 1.23-.87h11.79c.55 0 1.04.35 1.23.87l1.63 4.67.01.35c-.28.99-.97 1.64-1.76 1.93v7.89c0 .71-.59 1.3-1.3 1.3h-3.22c-.71 0-1.3-.59-1.3-1.3v-4.45h-2.37v4.45c0 .71-.59 1.29-1.3 1.3H6.29C5.58 21 5 20.41 5 19.7v-7.88c-.8-.3-1.49-.94-1.77-1.94l.01-.35zm1.42 7.12v7.72h3.22v-4.45c0-.71.58-1.3 1.3-1.3h2.37c.72 0 1.3.59 1.3 1.3v4.45h3.22v-7.72c-.65-.07-1.29-.35-1.76-.85-.52.6-1.28.9-2.01.9-.66 0-1.34-.24-1.83-.72h-.2c-.5.48-1.17.72-1.83.72-.73 0-1.49-.3-2-.9-.48.51-1.12.79-1.78.85m7.64-1.25c-.62 0-1.18-.36-1.29-1.09V5.29h1.9l.69 4.44c-.16.67-.71 1-1.3 1m2.59-1.17h.01c.18.76.79 1.13 1.45 1.13.62 0 1.22-.33 1.47-.99l-1.62-4.41h-1.97zM6.16 5.29h1.96l-.66 4.34c-.21.72-.81 1.07-1.45 1.07-.62 0-1.22-.34-1.47-1zm2.61 4.39.66-4.39h1.92v4.39c-.13.7-.68 1.05-1.28 1.05s-1.16-.35-1.3-1.05"/></svg>
